X: 137
T: Fortune
B: canberra pickers and fiddlers
B: old time tunes update
B: tunes
M:4/4
L:1/4
Q: 1/4=100
K:D
V:1 
f/2g/2|\
"D"fff/2e/2d|\
"A"e/2d/2c"D"df/2g/2|\
fff/2e/2d|\
"A"e2-ef/2g/2|\
"D"fff/2e/2d|\
"G"g[Bg]g[Bg]|\
"D"a/2f/2e/2d/2"A"c/2A/2B/2c/2|\
"D"d/2A/2F/2E/2D:|
f/2g/2|\
"D"aaf/2e/2d|\
"A"e/2d/2c"D"df/2g/2|\
"D"aaf/2e/2d|\
"A"e2-ef/2g/2|\
"D"aaf/2e/2d|\
"G"g/2f/2g/2a/2bb|\
"D"a/2f/2e/2d/2"A"A/2B/2c|\
"D"d/2A/2F/2E/2D:|\
% abcbook-tune_id 67a7d9ec8610b63bc8f8f829
% abcbook-tune_composer_id 
% abcbook-link-0 https://www.youtube.com/watch?v=d1Eujjrgi44
% abcbook-link-title-0 
% abcbook-link-1 https://www.youtube.com/watch?v=crp7zSrCRh4
% abcbook-link-title-1 Fortune
% abcbook-boost 0
% abcbook-difficulty 0
% abcbook-tags old time tunes
% abcbook-tablature 
% abcbook-transpose 
% abcbook-tuning ADAE
% abcbook-lastupdated 1739253967622
% abcbook-src-url 
% abcbook-soundfonts 
% abcbook-repeats 1
% Titles One title
% Transcriptions Only 1 transcription
% Movement Has lots of stepwise movement
% Movement Has some stepwise movement
% Mode major
% Key D
% Time_signature 4/4
% Text Has source text
% Has_accompaniment_chords Has chords

